src/2-landmarks/ticket-office--receive.svg

<svg width="1300" height="1000" viewBox="0 0 1300 1000" fill="none" xmlns="http://www.w3.org/2000/svg"><path fill-rule="evenodd" clip-rule="evenodd" d="M999.649 333.086c-3.769 1.408-10.807 1.91-12.649 1.914 0 0-8.301-.069-13.135-1.914-5.448-2.079-8.483-4.109-12.162-8.575-2.49-3.022-4.438-8.223-5.322-10.853-.362-1.079-.611-2.188-.801-3.31l-4.093-24.154s-.495-3.492-.487-5.742c.02-5.351.746-8.493 2.919-13.398 2.232-5.038 4.185-7.735 8.27-11.484 4.356-3.996 7.495-5.742 13.135-7.625 4.38-1.462 7.052-1.907 11.676-1.945 4.963.167 6.811.479 11.548 1.945 4.742 1.577 9.582 4.373 13.262 7.625 3.68 3.252 6.26 7.101 8.27 11.484s2.92 8.615 2.92 13.398c0 1.803-.2 3.959-.49 5.742l-4.86 23.833a25.09 25.09 0 0 1-1.01 3.617c-1.04 2.793-3.21 8.177-5.32 10.829-2.92 3.676-7.16 6.929-11.671 8.613Zm-2.46-6.699c-3.036 1.186-8.705 1.609-10.189 1.613 0 0-6.687-.058-10.581-1.613-4.389-1.752-6.834-3.462-9.797-7.226-1.949-2.474-3.485-6.68-4.224-8.951-.338-1.039-.567-2.105-.741-3.184l-3.265-20.155s-.399-2.943-.392-4.839c.016-4.509.601-7.156 2.351-11.29 1.799-4.246 3.371-6.518 6.663-9.677 3.508-3.368 6.037-4.839 10.581-6.426 3.527-1.232 5.68-1.607 9.405-1.639 3.998.141 5.487.403 9.302 1.639 3.818 1.329 7.718 3.685 10.688 6.426 2.96 2.74 5.04 5.983 6.66 9.677s2.35 7.26 2.35 11.29c0 1.52-.16 3.337-.39 4.839l-3.88 19.862a24.563 24.563 0 0 1-.93 3.486c-.87 2.407-2.56 6.742-4.21 8.91-2.35 3.098-5.77 5.839-9.401 7.258Z" fill="#000"/><path fill-rule="evenodd" clip-rule="evenodd" d="M700 120c0-11.046 8.954-20 20-20h460c11.05 0 20 8.954 20 20v780h100v100H0V900h700V120Zm22-13h456c8.28 0 15 6.716 15 15v28H707v-28c0-8.284 6.716-15 15-15Zm471 50v343h-104.04c.28-10.498.47-21.054.47-30.838 0-1.662-5.91-57.127-23.43-93.162-15.05-29.175-40.06-34.545-80.183-34.979-36.975-.426-60.317 6.979-85.944 34.197C879.5 406 866 428.5 866 428.5l-42.5-42-25.047-34.394c-2.992-4.281-9.286-7.313-14.375-6.135-7.119 1.649-12.415 9.915-10.427 16.948L782 396l61.489 72.047c-3.776 9.845-5.885 20.638-5.937 31.953H707V157h486ZM707 900V507h486v393H707Zm374.44-427.529-.11 27.529h-30.01l-2.81-30.909-7.46-50.009a1.234 1.234 0 0 0-1.21-1.07 1.235 1.235 0 0 0-1.24 1.324L1042 488l1.2 12h-52.27c-.185-40.126-26.235-73.681-60.792-81.686a.961.961 0 0 0-1.035-.232 70.363 70.363 0 0 0-14.862-1.582c-14.503 0-28.08 4.43-39.66 12.119 6.307-10.069 16.697-26.514 30.639-48.104C927 351 967.5 347.808 985.49 348.021c37.97.425 60.76 3.937 74.96 32.494 16.54 35.272 20.98 91.956 20.98 91.956h.01ZM983.93 500c-.181-36.305-23.258-66.736-54.071-74.553L924.5 487.5l-1.23 12.5h60.66Zm-112.636-16.157 52.301-59.653a63.566 63.566 0 0 0-9.354-.69c-27.345 0-51.059 17.467-62.465 42.829l14.957 17.491a3 3 0 0 0 4.561.023Zm-6.052 9.692-16.516-19.352c-2.659 8.066-4.129 16.758-4.174 25.817h70.669l1.279-13 7-52.5-50.664 59.101a5 5 0 0 1-7.594-.066ZM789.5 393.5l57.297 67.006c4.47-9.007 10.403-17.024 17.447-23.667L816 390l-22.857-34.285a7.22 7.22 0 0 0-6.007-3.215c-4.816 0-8.282 4.626-6.929 9.248L789.5 393.5Z" fill="#000"/></svg>

<svg width="1300" height="1000" viewBox="0 0 1300 1000" fill="none" xmlns="http://www.w3.org/2000/svg">
<path fill-rule="evenodd" clip-rule="evenodd" d="M999.649 333.086C995.88 334.494 988.842 334.996 987 335C987 335 978.699 334.931 973.865 333.086C968.417 331.007 965.382 328.977 961.703 324.511C959.213 321.489 957.265 316.288 956.381 313.658C956.019 312.579 955.77 311.47 955.58 310.348L951.487 286.194C951.487 286.194 950.992 282.702 951 280.452C951.02 275.101 951.746 271.959 953.919 267.054C956.151 262.016 958.104 259.319 962.189 255.57C966.545 251.574 969.684 249.828 975.324 247.945C979.704 246.483 982.376 246.038 987 246C991.963 246.167 993.811 246.479 998.548 247.945C1003.29 249.522 1008.13 252.318 1011.81 255.57C1015.49 258.822 1018.07 262.671 1020.08 267.054C1022.09 271.437 1023 275.669 1023 280.452C1023 282.255 1022.8 284.411 1022.51 286.194L1017.65 310.027C1017.4 311.256 1017.07 312.468 1016.64 313.644C1015.6 316.437 1013.43 321.821 1011.32 324.473C1008.4 328.149 1004.16 331.402 999.649 333.086ZM997.189 326.387C994.153 327.573 988.484 327.996 987 328C987 328 980.313 327.942 976.419 326.387C972.03 324.635 969.585 322.925 966.622 319.161C964.673 316.687 963.137 312.481 962.398 310.21C962.06 309.171 961.831 308.105 961.657 307.026L958.392 286.871C958.392 286.871 957.993 283.928 958 282.032C958.016 277.523 958.601 274.876 960.351 270.742C962.15 266.496 963.722 264.224 967.014 261.065C970.522 257.697 973.051 256.226 977.595 254.639C981.122 253.407 983.275 253.032 987 253C990.998 253.141 992.487 253.403 996.302 254.639C1000.12 255.968 1004.02 258.324 1006.99 261.065C1009.95 263.805 1012.03 267.048 1013.65 270.742C1015.27 274.436 1016 278.002 1016 282.032C1016 283.552 1015.84 285.369 1015.61 286.871L1011.73 306.733C1011.5 307.917 1011.2 309.084 1010.8 310.219C1009.93 312.626 1008.24 316.961 1006.59 319.129C1004.24 322.227 1000.82 324.968 997.189 326.387Z" fill="black"/>
<path fill-rule="evenodd" clip-rule="evenodd" d="M700 120C700 108.954 708.954 100 720 100H1180C1191.05 100 1200 108.954 1200 120V900H1300V1000H0V900H700V120ZM722 107H1178C1186.28 107 1193 113.716 1193 122V150H707V122C707 113.716 713.716 107 722 107ZM1193 157V500H1088.96C1089.24 489.502 1089.43 478.946 1089.43 469.162C1089.43 467.5 1083.52 412.035 1066 376C1050.95 346.825 1025.94 341.455 985.817 341.021C948.842 340.595 925.5 348 899.873 375.218C879.5 406 866 428.5 866 428.5L823.5 386.5L798.453 352.106C795.461 347.825 789.167 344.793 784.078 345.971C776.959 347.62 771.663 355.886 773.651 362.919L782 396L843.489 468.047C839.713 477.892 837.604 488.685 837.552 500H707V157H1193ZM707 900V507H1193V900H707ZM1081.44 472.471L1081.33 500H1051.32L1048.51 469.091L1041.05 419.082C1040.97 418.474 1040.45 418.017 1039.84 418.012C1039.12 418.005 1038.55 418.618 1038.6 419.336L1042 488L1043.2 500H990.93C990.745 459.874 964.695 426.319 930.138 418.314C929.963 418.133 929.717 418.021 929.444 418.021C929.386 418.021 929.329 418.026 929.273 418.036C929.215 418.046 929.158 418.062 929.103 418.082C924.294 417.044 919.324 416.5 914.241 416.5C899.738 416.5 886.161 420.93 874.581 428.619C880.888 418.55 891.278 402.105 905.22 380.515C927 351 967.5 347.808 985.49 348.021C1023.46 348.446 1046.25 351.958 1060.45 380.515C1076.99 415.787 1081.43 472.471 1081.43 472.471H1081.44ZM983.93 500C983.749 463.695 960.672 433.264 929.859 425.447L924.5 487.5L923.27 500H983.93ZM871.294 483.843L923.595 424.19C920.535 423.735 917.412 423.5 914.241 423.5C886.896 423.5 863.182 440.967 851.776 466.329L866.733 483.82C867.923 485.227 870.09 485.238 871.294 483.843ZM865.242 493.535L848.726 474.183C846.067 482.249 844.597 490.941 844.552 500H915.221L916.5 487L923.5 434.5L872.836 493.601C870.82 495.913 867.217 495.881 865.242 493.535ZM789.5 393.5L846.797 460.506C851.267 451.499 857.2 443.482 864.244 436.839L816 390L793.143 355.715C791.804 353.707 789.55 352.5 787.136 352.5C782.32 352.5 778.854 357.126 780.207 361.748L789.5 393.5Z" fill="black"/>
</svg>
